dist/icons/whats-up.svg

<svg width="20" height="20" viewBox="0 0 20 20" fill="none" xmlns="http://www.w3.org/2000/svg">
<path d="M10.625 18.75C9.01042 18.75 7.49349 18.3594 6.07422 17.5781L0 20L2.42188 13.9258C1.64062 12.5065 1.25 10.9896 1.25 9.375C1.25 8.09896 1.4974 6.88477 1.99219 5.73242C2.48698 4.58008 3.1543 3.58398 3.99414 2.74414C4.83398 1.9043 5.83008 1.23698 6.98242 0.742188C8.13477 0.247396 9.34896 0 10.625 0C11.901 0 13.1152 0.247396 14.2676 0.742188C15.4199 1.23698 16.416 1.9043 17.2559 2.74414C18.0957 3.58398 18.763 4.58008 19.2578 5.73242C19.7526 6.88477 20 8.09896 20 9.375C20 10.651 19.7526 11.8652 19.2578 13.0176C18.763 14.1699 18.0957 15.166 17.2559 16.0059C16.416 16.8457 15.4199 17.513 14.2676 18.0078C13.1152 18.5026 11.901 18.75 10.625 18.75ZM13.75 11.25H12.5L11.7969 11.875C11.2109 11.7188 10.4915 11.2142 9.63867 10.3613C8.78581 9.50846 8.28125 8.78906 8.125 8.20312L8.75 7.5V6.25C8.75 6.02865 8.67188 5.80729 8.51562 5.58594C8.35938 5.36458 8.18685 5.20508 7.99805 5.10742C7.80924 5.00977 7.67578 5 7.59766 5.07812L6.67969 5.99609C6.17188 6.50391 6.09701 7.29492 6.45508 8.36914C6.81315 9.44336 7.49674 10.485 8.50586 11.4941C9.51497 12.5033 10.5566 13.1868 11.6309 13.5449C12.7051 13.903 13.4961 13.8281 14.0039 13.3203L14.9219 12.4023C15 12.3242 14.9902 12.1908 14.8926 12.002C14.7949 11.8132 14.6354 11.6406 14.4141 11.4844C14.1927 11.3281 13.9714 11.25 13.75 11.25Z" fill="black" fill-opacity="0.5"/>
</svg>

<svg width="20" height="20" fill="none" xmlns="http://www.w3.org/2000/svg"><path d="M10.625 18.75a9.291 9.291 0 01-4.55-1.172L0 20l2.422-6.074A9.292 9.292 0 011.25 9.375c0-1.276.247-2.49.742-3.643a9.447 9.447 0 012.002-2.988A9.448 9.448 0 016.982.742 9.136 9.136 0 0110.625 0c1.276 0 2.49.247 3.643.742a9.449 9.449 0 012.988 2.002 9.448 9.448 0 012.002 2.988A9.136 9.136 0 0120 9.375c0 1.276-.247 2.49-.742 3.643a9.45 9.45 0 01-2.002 2.988 9.45 9.45 0 01-2.988 2.002 9.136 9.136 0 01-3.643.742zm3.125-7.5H12.5l-.703.625c-.586-.156-1.306-.66-2.158-1.514-.853-.853-1.358-1.572-1.514-2.158L8.75 7.5V6.25c0-.221-.078-.443-.234-.664a1.482 1.482 0 00-.518-.479c-.189-.097-.322-.107-.4-.029l-.918.918c-.508.508-.583 1.299-.225 2.373.358 1.074 1.042 2.116 2.05 3.125 1.01 1.01 2.052 1.693 3.126 2.05 1.074.359 1.865.284 2.373-.224l.918-.918c.078-.078.068-.211-.03-.4a1.483 1.483 0 00-.478-.518 1.147 1.147 0 00-.664-.234z" fill="#000" fill-opacity=".5"/></svg>
